src/icon/animals/monkey.svg

<svg enable-background="new 0 0 24 24" viewBox="0 0 24 24" xmlns="http://www.w3.org/2000/svg"><path d="m22 5.5c0-1.9-1.6-3.5-3.5-3.5-1.2 0-2.3.7-2.9 1.6-1.2-.4-2.4-.6-3.6-.6s-2.4.2-3.5.6c-.7-.9-1.8-1.6-3-1.6-1.9 0-3.5 1.6-3.5 3.5 0 1 .4 1.9 1.1 2.6-.7 1.3-1.1 2.8-1.1 4.4 0 5.2 4.5 9.5 10 9.5s10-4.3 10-9.5c0-1.6-.4-3.1-1.1-4.4.7-.6 1.1-1.5 1.1-2.6zm-6.5 9.5c.3.6.5 1.3.5 2 0 2.2-1.8 4-4 4s-4-1.8-4-4c0-.7.2-1.4.5-2-2.5 0-4.5-2-4.5-4.5s2-4.5 4.5-4.5c1.4 0 2.7.7 3.5 1.7.8-1 2.1-1.7 3.5-1.7 2.5 0 4.5 2 4.5 4.5s-2 4.5-4.5 4.5z"/><circle cx="8" cy="10" r="1"/><circle cx="16" cy="10" r="1"/><circle cx="12" cy="14" r="2"/><path d="m11 19h2c1.1 0 2-.9 2-2h-6c0 1.1.9 2 2 2z"/></svg>

<?xml version="1.0" encoding="utf-8"?>
<!-- Generator: Adobe Illustrator 18.0.0, SVG Export Plug-In . SVG Version: 6.00 Build 0)  -->
<!DOCTYPE svg PUBLIC "-//W3C//DTD SVG 1.1//EN" "http://www.w3.org/Graphics/SVG/1.1/DTD/svg11.dtd">
<svg version="1.1" id="Layer_1" xmlns="http://www.w3.org/2000/svg" xmlns:xlink="http://www.w3.org/1999/xlink" x="0px" y="0px"
	 viewBox="0 0 24 24" enable-background="new 0 0 24 24" xml:space="preserve">
<g>
	<path d="M22,5.5C22,3.6,20.4,2,18.5,2c-1.2,0-2.3,0.7-2.9,1.6C14.4,3.2,13.2,3,12,3S9.6,3.2,8.5,3.6C7.8,2.7,6.7,2,5.5,2
		C3.6,2,2,3.6,2,5.5c0,1,0.4,1.9,1.1,2.6C2.4,9.4,2,10.9,2,12.5C2,17.7,6.5,22,12,22s10-4.3,10-9.5c0-1.6-0.4-3.1-1.1-4.4
		C21.6,7.5,22,6.6,22,5.5z M15.5,15c0.3,0.6,0.5,1.3,0.5,2c0,2.2-1.8,4-4,4s-4-1.8-4-4c0-0.7,0.2-1.4,0.5-2C6,15,4,13,4,10.5
		S6,6,8.5,6c1.4,0,2.7,0.7,3.5,1.7c0.8-1,2.1-1.7,3.5-1.7C18,6,20,8,20,10.5S18,15,15.5,15z"/>
	<circle cx="8" cy="10" r="1"/>
	<circle cx="16" cy="10" r="1"/>
	<circle cx="12" cy="14" r="2"/>
	<path d="M11,19h2c1.1,0,2-0.9,2-2H9C9,18.1,9.9,19,11,19z"/>
</g>
</svg>
